X:1
T:News, 86.86.88.86
T:News, 86.86.88.86
T:Anonymous, before 1860
T:Public Domain Courtesy of the Cyber Hymnal™
C:Anonymous, before 1860
Z:Public Domain
Z:Courtesy of the Cyber Hymnal™
%%score ( 1 2 ) ( 3 4 )
L:1/8
Q:1/4=110
M:2/4
K:Eb
V:1 treble 
V:2 treble 
V:3 bass 
V:4 bass 
V:1
 (EG) | [EB]2 [EB]2 | [EB]2 (ed) | [Ec]2 [Ee]2 | [EB]4 | [FB]3 [DA] | [EG]4 | [DA]3 [EG] | %8
 [DF]2 (EG) | [EB]2 [EB]2 | [EB]2 (ed) | [Ec]2 [Ee]2 | [EB]4 | [GB]3 [GB] | [Ac]4 | [Fd]3 [Fd] | %16
 !fermata![Ge]2 (ed) | [Ec]2 [Ec]2 | [Ec]2 (dc) | [FB]2 [DB]2 | [EB]2 (cB) | [FA]2 [FA]2 | %22
 [FA]2 (BA) | [FA]2 [FG]2 | [EG]2 (EG) | [EB]2 [EB]2 | [EB]2 (ed) | [Ec]2 [Ee]2 | [EB]4 | %29
 [GB]3 [GB] | [Ac]4 | [Fd]3 [Fd] | !fermata![Ge]2 |] %33
V:2
 E2 | x4 | x2 E2 | x4 | x4 | x4 | x4 | x4 | x2 E2 | x4 | x2 E2 | x4 | x4 | x4 | x4 | x4 | x2 E2 | %17
 x4 | x2 F2 | x4 | x2 =E2 | x4 | x2 D2 | x4 | x2 E2 | x4 | x2 E2 | x4 | x4 | x4 | x4 | x4 | x2 |] %33
V:3
 [E,G,]2 | [E,G,]2 [E,G,]2 | [E,G,]2 [G,B,]2 | A,2 [C,A,]2 | [E,G,]4 | [D,B,]3 [B,,B,] | [E,B,]4 | %7
 [F,B,]3 [E,B,] | [B,,B,]2 [E,G,]2 | [E,G,]2 [E,G,]2 | [E,G,]2 [G,B,]2 | A,2 [C,A,]2 | [E,G,]4 | %13
 [E,E]3 [E,E] | [E,E]4 | B,3 [B,,B,] | !fermata![E,B,]2 [G,B,]2 | A,2 [A,,A,]2 | [C,A,]2 [F,A,]2 | %19
 [D,B,]2 [B,,A,]2 | [E,G,]2 [C,C]2 | [F,C]2 [E,C]2 | [D,B,]2 [B,,B,]2 | [E,B,]2 [D,=B,]2 | %24
 [C,C]2 [E,G,]2 | [E,G,]2 [E,G,]2 | [E,G,]2 [G,B,]2 | A,2 [C,A,]2 | [E,G,]4 | [E,E]3 [E,E] | %30
 [A,E]4 | B,3 [B,,B,] | !fermata![E,B,]2 |] %33
V:4
 x2 | x4 | x4 | A,2 x2 | x4 | x4 | x4 | x4 | x4 | x4 | x4 | A,2 x2 | x4 | x4 | x4 | B,3 x | x4 | %17
 A,2 x2 | x4 | x4 | x4 | x4 | x4 | x4 | x4 | x4 | x4 | A,2 x2 | x4 | x4 | x4 | B,3 x | x2 |] %33

